X: 2
T: The Leg Of The Duck
R: jig
M: 6/8
L: 1/8
K: Gmaj
|:DGG GAG|FEF Ddc|B3 GB/c/d|cAG FEF|
DGG GAG|FEF DBc|ded cAF|AGF G3:||
|:dgg def|dgg cBc|dgg def|GFG ABc|
def g3|agf g2e|fed cAF|AGF G3:||


Tune 1388	Setting 1388

